;FLAVOR:Marlin
;TIME:1483
;Filament used: 0.42837m
;Layer height: 0.2
;MINX:102.694
;MINY:81.297
;MINZ:0.2
;MAXX:143.15
;MAXY:113.147
;MAXZ:18
;Generated with Cura_SteamEngine 5.2.1
M140 S50
M105
M190 S50
M104 S200
M105
M109 S200
M82 ;absolute extrusion mode
; Script based on an original created by tjjfvi (https://github.com/tjjfvi)
; An up-to-date version of the tjjfvi's original script can be found
; here:  https://csi.t6.fyi/
; Note - This script will only work in Cura V4.2 and above!
; --- Global Settings
; layer_height = 0.2
; smooth_spiralized_contours = True
; magic_mesh_surface_mode = normal
; machine_extruder_count = 1
; --- Single Extruder Settings
; speed_z_hop = 5
; retraction_amount = 5.5
; retraction_hop = 0.2
; retraction_hop_enabled = False
; retraction_enable = True
; retraction_speed = 45
; retraction_retract_speed = 45
; retraction_prime_speed = 45
; speed_travel = 225.0

M201 X500.00 Y500.00 Z100.00 E5000.00 ;Setup machine max acceleration
M203 X500.00 Y500.00 Z10.00 E50.00 ;Setup machine max feedrate
M204 P500.00 R1000.00 T500.00 ;Setup Print/Retract/Travel acceleration
M205 X8.00 Y8.00 Z0.40 E5.00 ;Setup Jerk
M220 S100 ;Reset Feedrate
M221 S100 ;Reset Flowrate

G28 ;Home

G92 E0 ;Reset Extruder
G1 Z2.0 F3000 ;Move Z Axis up
G1 X10.1 Y20 Z0.28 F5000.0 ;Move to start position
G1 X10.1 Y200.0 Z0.28 F1500.0 E15 ;Draw the first line
G1 X10.4 Y200.0 Z0.28 F5000.0 ;Move to side a little
G1 X10.4 Y20 Z0.28 F1500.0 E30 ;Draw the second line
G92 E0 ;Reset Extruder
G1 Z2.0 F3000 ;Move Z Axis up
G92 E0
G92 E0
G1 F2700 E-5.5
;LAYER_COUNT:90
;LAYER:0
M107
;MESH:Gridfinity Link Pt.1 v2.stl(1)
G0 F6000 X105.023 Y85.849 Z0.2
;TYPE:WALL-INNER
G1 F2700 E0
G1 F1200 X105.427 Y85.905 E0.01357
G1 X105.835 Y85.876 E0.02717
G1 X106.229 Y85.758 E0.04085
G1 X106.594 Y85.556 E0.05472
G1 X106.983 Y85.254 E0.0711
G1 X107.447 Y85.029 E0.08826
G1 X107.99 Y84.946 E0.10653
G1 X108.54 Y85.028 E0.12502
G1 X109 Y85.25 E0.14201
G1 X109.375 Y85.541 E0.1578
G1 X109.728 Y85.745 E0.17136
G1 X109.995 Y85.847 E0.18086
G1 X110.294 Y85.896 E0.19094
G1 X110.69 Y85.897 E0.20411
G1 X110.975 Y85.852 E0.21371
G1 X111.256 Y85.746 E0.2237
G1 X111.609 Y85.545 E0.23721
G1 X111.98 Y85.251 E0.25295
G1 X112.45 Y85.029 E0.27024
G1 X112.99 Y84.946 E0.28841
G1 X113.54 Y85.028 E0.30691
G1 X114 Y85.25 E0.3239
G1 X114.384 Y85.547 E0.34004
G1 X114.754 Y85.756 E0.35418
G1 X115.247 Y85.905 E0.37131
G1 X115.765 Y85.887 E0.38854
G1 X116.272 Y85.758 E0.40594
G1 X116.708 Y85.47 E0.42332
G1 X116.993 Y85.174 E0.43699
G1 X117.209 Y84.822 E0.45073
G1 X117.379 Y84.331 E0.46801
G1 X117.388 Y83.904 E0.48221
G1 X117.348 Y83.596 E0.49254
G1 X117.179 Y83.102 E0.50991
G1 X116.797 Y82.606 E0.53073
G1 X116.366 Y82.32 E0.54794
G1 X115.964 Y82.168 E0.56223
G1 X115.564 Y82.111 E0.57567
G1 X115.154 Y82.141 E0.58934
G1 X114.76 Y82.259 E0.60302
G1 X114.396 Y82.461 E0.61687
G1 X114.007 Y82.762 E0.63323
G1 X113.55 Y82.983 E0.65011
G1 X113.202 Y83.049 E0.66189
G1 X112.789 Y83.05 E0.67563
G1 X112.443 Y82.985 E0.68734
G1 X111.989 Y82.766 E0.7041
G1 X111.614 Y82.475 E0.71989
G1 X111.268 Y82.275 E0.73318
G1 X110.995 Y82.169 E0.74292
G1 X110.695 Y82.121 E0.75303
G1 X110.3 Y82.12 E0.76617
G1 X110.017 Y82.164 E0.77569
G1 X109.732 Y82.27 E0.7858
G1 X109.382 Y82.471 E0.79923
G1 X109.01 Y82.765 E0.815
G1 X108.548 Y82.983 E0.83199
G1 X108.202 Y83.049 E0.84371
G1 X107.789 Y83.05 E0.85744
G1 X107.443 Y82.985 E0.86915
G1 X106.99 Y82.766 E0.88589
G1 X106.606 Y82.47 E0.90201
G1 X106.237 Y82.262 E0.9161
G1 X105.842 Y82.142 E0.92983
G1 X105.327 Y82.103 E0.94701
G1 X104.716 Y82.26 E0.96799
G1 X104.196 Y82.603 E0.98871
G1 X103.814 Y83.098 E1.00951
G1 X103.644 Y83.592 E1.02688
G1 X103.597 Y84.003 E1.04064
G1 X103.642 Y84.419 E1.05456
G1 X103.777 Y84.815 E1.06847
G1 X103.987 Y85.162 E1.08196
G1 X104.282 Y85.47 E1.09615
G1 X104.624 Y85.695 E1.10977
G1 X105.023 Y85.849 E1.12399
G1 F2700 E-4.37601
G0 F6000 X104.901 Y85.703
G0 X106.465 Y85.401
G0 X107.068 Y85.388
G0 X107.501 Y85.183
G0 X107.987 Y85.109
G0 X108.267 Y85.148
G0 X110.2 Y85.778
G1 F2700 E1.12399
G0 F6000 X109.89 Y86.235
;TYPE:WALL-OUTER
G1 F1200 X110.251 Y86.294 E1.13616
G1 X110.732 Y86.295 E1.15215
G1 X111.078 Y86.24 E1.16381
G1 X111.417 Y86.113 E1.17585
G1 X111.841 Y85.871 E1.19209
G1 X112.194 Y85.594 E1.20701
G1 X112.586 Y85.412 E1.22138
G1 X112.988 Y85.351 E1.23491
G1 X113.403 Y85.411 E1.24885
G1 X113.786 Y85.588 E1.26289
G1 X114.152 Y85.874 E1.27834
G1 X114.371 Y86.013 E1.28696
G1 X114.598 Y86.125 E1.29538
G1 X114.963 Y86.254 E1.30826
G1 X115.44 Y86.317 E1.32426
G1 X115.942 Y86.272 E1.34102
G1 X116.31 Y86.159 E1.35383
G1 X116.548 Y86.053 E1.36249
G1 X116.963 Y85.779 E1.37903
G1 X117.146 Y85.608 E1.38736
G1 X117.31 Y85.419 E1.39569
G1 X117.528 Y85.104 E1.40843
G1 X117.716 Y84.63 E1.42539
G1 X117.779 Y84.265 E1.43771
G1 X117.794 Y84.014 E1.44607
G1 X117.788 Y83.882 E1.45047
G1 X117.78 Y83.757 E1.45463
G1 X117.721 Y83.4 E1.46667
G1 X117.577 Y83.033 E1.47978
G1 X117.4 Y82.704 E1.49221
G1 X117.15 Y82.411 E1.50502
G1 X116.89 Y82.169 E1.51683
G1 X116.452 Y81.905 E1.53384
G1 X115.957 Y81.746 E1.55113
G1 X115.579 Y81.711 E1.56376
G1 X115.329 Y81.715 E1.57207
G1 X114.963 Y81.762 E1.58435
G1 X114.606 Y81.889 E1.59695
G1 X114.378 Y82 E1.60538
G1 X114.166 Y82.133 E1.61371
G1 X113.812 Y82.411 E1.62868
G1 X113.444 Y82.59 E1.64229
G1 X113.19 Y82.649 E1.65096
G1 X112.804 Y82.65 E1.6638
G1 X112.591 Y82.606 E1.67103
G1 X112.203 Y82.428 E1.68523
G1 X111.848 Y82.149 E1.70025
G1 X111.432 Y81.909 E1.71622
G1 X111.101 Y81.781 E1.72803
G1 X110.739 Y81.723 E1.74022
G1 X110.258 Y81.722 E1.75622
G1 X109.915 Y81.775 E1.76776
G1 X109.572 Y81.903 E1.77994
G1 X109.149 Y82.145 E1.79615
G1 X108.812 Y82.411 E1.81043
G1 X108.444 Y82.59 E1.82404
G1 X108.19 Y82.649 E1.83271
G1 X107.804 Y82.65 E1.84555
G1 X107.591 Y82.606 E1.85278
G1 X107.204 Y82.428 E1.86695
G1 X106.838 Y82.143 E1.88238
G1 X106.619 Y82.003 E1.89103
G1 X106.392 Y81.892 E1.89943
G1 X106.025 Y81.762 E1.91238
G1 X105.669 Y81.716 E1.92432
G1 X105.419 Y81.711 E1.93264
G1 X105.052 Y81.743 E1.94489
G1 X104.68 Y81.858 E1.95784
G1 X104.442 Y81.963 E1.96649
G1 X103.941 Y82.293 E1.98644
G1 X103.68 Y82.598 E1.9998
G1 X103.464 Y82.907 E2.01234
G1 X103.274 Y83.385 E2.02944
G1 X103.211 Y83.751 E2.0418
G1 X103.196 Y84.002 E2.05016
G1 X103.21 Y84.257 E2.05865
G1 X103.269 Y84.616 E2.07075
G1 X103.413 Y84.983 E2.08387
G1 X103.593 Y85.318 E2.09652
G1 X103.838 Y85.603 E2.10902
G1 X104.102 Y85.849 E2.12102
G1 X104.556 Y86.12 E2.1386
G1 X105.028 Y86.27 E2.15508
G1 X105.411 Y86.305 E2.16787
G1 X105.661 Y86.302 E2.17618
G1 X106.022 Y86.255 E2.18829
G1 X106.384 Y86.128 E2.20105
G1 X106.612 Y86.017 E2.20949
G1 X106.824 Y85.884 E2.21781
G1 X107.178 Y85.605 E2.2328
G1 X107.586 Y85.412 E2.24781
G1 X107.988 Y85.351 E2.26134
G1 X108.403 Y85.411 E2.27528
G1 X108.786 Y85.588 E2.28932
G1 X109.142 Y85.867 E2.30436
G1 X109.565 Y86.111 E2.3206
G1 X109.89 Y86.235 E2.33217
G0 F6000 X109.99 Y85.479
;TYPE:SKIN
G1 F1200 X110.329 Y85.537 E2.34361
G1 X110.784 Y85.537 E2.35874
G1 X111.105 Y85.418 E2.37013
G1 X111.402 Y85.248 E2.38151
G1 X111.755 Y84.969 E2.39648
G1 X112.336 Y84.681 E2.41804
G1 X112.991 Y84.581 E2.44008
G1 X113.643 Y84.678 E2.46201
G1 X114.168 Y84.924 E2.48129
G1 X114.588 Y85.249 E2.49895
G1 X114.983 Y85.47 E2.51401
G1 X115.462 Y85.555 E2.53019
G1 X115.858 Y85.501 E2.54348
G1 X116.199 Y85.375 E2.55557
G1 X116.479 Y85.19 E2.56673
G1 X116.708 Y84.952 E2.57772
G1 X116.928 Y84.592 E2.59175
G1 X117.022 Y84.177 E2.6059
G1 X117.022 Y84.007 E2.61156
G1 X117.022 Y83.841 E2.61708
G1 X116.933 Y83.438 E2.63081
G1 X116.714 Y83.073 E2.64496
G1 X116.476 Y82.824 E2.65642
G1 X116.2 Y82.643 E2.6674
G1 X115.876 Y82.518 E2.67895
G1 X115.469 Y82.461 E2.69262
G1 X115.067 Y82.535 E2.70621
G1 X114.686 Y82.693 E2.71993
G1 X114.178 Y83.085 E2.74127
G1 X113.645 Y83.335 E2.76085
G1 X113.237 Y83.407 E2.77463
G1 X112.751 Y83.407 E2.7908
G1 X112.349 Y83.336 E2.80438
G1 X111.813 Y83.079 E2.82415
G1 X111.409 Y82.771 E2.84104
G1 X111 Y82.536 E2.85673
G1 X110.661 Y82.48 E2.86816
G1 X110.213 Y82.48 E2.88306
G1 X109.882 Y82.6 E2.89477
G1 X109.589 Y82.768 E2.906
G1 X109.185 Y83.082 E2.92302
G1 X108.648 Y83.334 E2.94275
G1 X108.237 Y83.407 E2.95664
G1 X107.751 Y83.407 E2.9728
G1 X107.349 Y83.336 E2.98638
G1 X106.817 Y83.082 E3.00599
G1 X106.308 Y82.696 E3.02723
G1 X106.003 Y82.56 E3.03834
G1 X105.687 Y82.474 E3.04923
G1 X105.28 Y82.489 E3.06278
G1 X104.858 Y82.597 E3.07727
G1 X104.441 Y82.874 E3.09392
G1 X104.182 Y83.208 E3.10797
G1 X104.038 Y83.53 E3.11971
G1 X103.969 Y83.839 E3.13024
G1 X103.968 Y84.253 E3.14401
G1 X104.134 Y84.746 E3.16131
G1 X104.442 Y85.144 E3.17805
G1 X104.792 Y85.373 E3.19196
G1 X105.125 Y85.503 E3.20385
G1 X105.44 Y85.544 E3.21441
G1 X105.769 Y85.519 E3.22539
G1 X106.087 Y85.425 E3.23642
G1 X106.39 Y85.257 E3.24794
G1 X106.777 Y84.958 E3.26421
G1 X107.336 Y84.681 E3.28496
G1 X107.991 Y84.581 E3.30699
G1 X108.644 Y84.678 E3.32895
G1 X109.174 Y84.928 E3.34844
G1 X109.582 Y85.244 E3.36561
G1 X109.99 Y85.479 E3.38127
G0 F6000 X109.903 Y85.703
G0 X108.482 Y85.181
G0 X107.987 Y85.109
G0 X106.422 Y85.474
G0 X105.806 Y85.718
G0 X105.063 Y85.693
G0 X104.466 Y85.404
G0 X104.209 Y85.127
G0 X103.803 Y84.606
G0 X104.242 Y84.443
G1 F1200 X105.063 Y85.264 E3.41988
G0 F6000 X105.688 Y85.323
G1 F1200 X104.178 Y83.814 E3.49089
G0 F6000 X104.319 Y83.389
G1 F1200 X106.111 Y85.18 E3.57515
G0 F6000 X106.452 Y84.956
G1 F1200 X104.551 Y83.055 E3.66457
G0 F6000 X104.883 Y82.821
G1 F1200 X106.787 Y84.725 E3.75413
G0 F6000 X107.166 Y84.539
G1 F1200 X105.315 Y82.688 E3.84119
G0 F6000 X105.947 Y82.754
G1 F1200 X107.627 Y84.434 E3.92021
G0 F6000 X108.163 Y84.404
G1 F1200 X107.288 Y83.529 E3.96137
G0 F6000 X107.931 Y83.606
G1 F1200 X108.905 Y84.58 E4.00719
G0 F6000 X108.709 Y84.997
G0 X106.571 Y85.368
G0 X105.982 Y85.675
G0 X105.318 Y85.733
G0 X104.7 Y85.553
G0 X104.174 Y85.134
G0 X103.849 Y84.556
G0 X103.764 Y83.91
G0 X103.927 Y83.262
G0 X104.313 Y82.737
G0 X104.878 Y82.384
G0 X105.536 Y82.275
G0 X105.897 Y82.351
G0 X108.351 Y83.129
G0 X108.458 Y83.568
G1 F1200 X110.201 Y85.311 E4.08917
G0 F6000 X110.781 Y85.325
G1 F1200 X108.895 Y83.439 E4.17788
G0 F6000 X109.279 Y83.258
G1 F1200 X111.17 Y85.149 E4.26683
G0 F6000 X111.5 Y84.913
G1 F1200 X109.601 Y83.014 E4.35615
G0 F6000 X109.946 Y82.793
G1 F1200 X111.848 Y84.695 E4.44562
G0 F6000 X112.228 Y84.509
G1 F1200 X110.399 Y82.68 E4.53165
G0 F6000 X111.12 Y82.836
G1 F1200 X112.706 Y84.422 E4.60625
G0 F6000 X113.27 Y84.42
G1 F1200 X112.398 Y83.548 E4.64726
G0 F6000 X113.023 Y83.607
G1 F1200 X114.077 Y84.661 E4.69684
G0 F6000 X113.88 Y85.078
G0 X115.008 Y85.675
G0 X115.651 Y85.735
G0 X116.29 Y85.554
G0 X116.806 Y85.143
G0 X117.139 Y84.563
G0 X117.227 Y83.913
G0 X117.067 Y83.27
G0 X116.677 Y82.737
G0 X116.123 Y82.388
G0 X115.464 Y82.273
G0 X114.946 Y82.381
G0 X113.437 Y83.109
G0 X113.537 Y83.555
G1 F1200 X115.305 Y85.324 E4.78003
G0 F6000 X115.84 Y85.293
G1 F1200 X113.956 Y83.409 E4.86864
G0 F6000 X114.334 Y83.222
G1 F1200 X116.227 Y85.114 E4.95766
G0 F6000 X116.528 Y84.849
G1 F1200 X114.652 Y82.974 E5.04588
G0 F6000 X115.016 Y82.772
G1 F1200 X116.743 Y84.499 E5.12711
G0 F6000 X116.821 Y84.011
G1 F1200 X115.474 Y82.665 E5.19045
G1 F2700 E-0.30955
;MESH:Gridfinity Link Pt.2 v2.stl
G0 F6000 X115.466 Y82.212
G0 X116.291 Y82.463
G0 X117.464 Y83.335
G0 X132.645 Y84.929
G0 X133.024 Y84.607
;TYPE:WALL-INNER
G1 F2700 E5.19045
G1 F1176.5 X133.326 Y84.574 E5.20075
G1 X133.632 Y84.607 E5.2112
G1 X133.523 Y84.317 E5.22171
G1 F1032.3 X133.32 Y83.947 E5.23802
G1 X133.129 Y84.325 E5.2544
G1 F1176.5 X133.024 Y84.607 E5.26461
G0 F6000 X133.328 Y84.384
G0 X133.298 Y82.927
G0 X133.327 Y83.454
G1 F924.9 X133.468 Y83.127 E5.27997
G1 F1156.6 X133.551 Y82.852 E5.28989
G1 F1179.4 X133.631 Y82.66 E5.29693
G1 X133.308 Y82.7 E5.30794
G1 F1167.9 X133.033 Y82.667 E5.31741
G1 F1145.6 X133.178 Y83.109 E5.33361
G1 F924.9 X133.327 Y83.454 E5.34983
G1 F2700 E-0.15017
G0 F6000 X133.298 Y82.927
G0 X132.919 Y84.406
G0 X131.894 Y84.031
G0 X130.455 Y84.708
G0 X130.139 Y85.492
;TYPE:WALL-OUTER
G1 F2700 E5.34983
G1 F1399.4 X129.758 Y85.307 E5.36191
G1 X129.388 Y85 E5.37562
G1 F1391.3 X129.14 Y84.664 E5.3876
G1 F1371.4 X128.97 Y84.323 E5.39869
G1 F1375.4 X128.882 Y83.991 E5.40866
G1 F1391.3 X128.849 Y83.62 E5.41934
G1 F1387.3 X128.879 Y83.292 E5.42882
G1 X128.98 Y82.918 E5.43996
G1 F1395.3 X129.164 Y82.55 E5.45173
G1 F1391.3 X129.43 Y82.234 E5.46358
G1 F1379.3 X129.703 Y82.008 E5.47384
G1 F1391.3 X130.104 Y81.788 E5.48696
G1 X130.503 Y81.684 E5.49879
G1 X130.929 Y81.656 E5.51103
G1 F1383.3 X131.351 Y81.724 E5.52337
G1 F1371.4 X131.707 Y81.865 E5.53451
G1 F1383.3 X132.076 Y82.091 E5.547
G1 F1293.8 X132.478 Y82.494 E5.56456
G1 F1206 X132.662 Y82.84 E5.57752
G1 F1200 X132.763 Y83.132 E5.5878
G1 X132.826 Y83.561 E5.60222
G1 X132.811 Y83.89 E5.61318
G1 X132.717 Y84.314 E5.62762
G1 F1215.2 X132.475 Y84.772 E5.64463
G1 F1293.8 X132.155 Y85.095 E5.65866
G1 F1383.3 X131.864 Y85.312 E5.66913
G1 F1399.4 X131.438 Y85.528 E5.68276
G1 F1403.5 X130.932 Y85.616 E5.69736
G1 F1395.3 X130.543 Y85.589 E5.70852
G1 F1379.3 X130.494 Y85.579 E5.70996
G1 F1383.3 X130.139 Y85.492 E5.72051
G1 F2700 E0.22051
G0 F6000 X137.645 Y84.929
G0 X138.024 Y84.607
;TYPE:WALL-INNER
G1 F2700 E5.72051
G1 F1176.5 X138.326 Y84.574 E5.73082
G1 X138.632 Y84.607 E5.74126
G1 X138.523 Y84.317 E5.75177
G1 F1032.3 X138.32 Y83.947 E5.76808
G1 X138.129 Y84.325 E5.78446
G1 F1176.5 X138.024 Y84.607 E5.79467
G0 F6000 X138.328 Y84.384
G0 X138.299 Y82.926
G0 X138.327 Y83.454
G1 F924.9 X138.468 Y83.127 E5.81004
G1 F1156.6 X138.551 Y82.852 E5.81995
G1 F1179.4 X138.631 Y82.66 E5.82699
G1 X138.308 Y82.7 E5.838
G1 F1167.9 X138.033 Y82.667 E5.84747
G1 F1145.6 X138.178 Y83.109 E5.86367
G1 F924.9 X138.327 Y83.454 E5.87989
G1 F2700 E0.37989
G0 F6000 X138.299 Y82.926
G0 X138.637 Y84.025
G0 X139.758 Y84.021
G0 X141.21 Y84.71
G0 X141.658 Y85.613
;TYPE:WALL-OUTER
G1 F2700 E5.87989
G1 F697.7 X141.948 Y85.464 E5.89854
G1 X142.305 Y85.198 E5.92401
G1 F693.6 X142.592 Y84.868 E5.94918
G1 F689.7 X142.845 Y84.398 E5.98007
G1 F684.7 X142.969 Y83.869 E6.01174
G1 F690.6 X142.97 Y83.54 E6.03075
G1 F693.6 X142.887 Y82.967 E6.06407
G1 F688.7 X142.602 Y82.414 E6.10012
G1 F686.7 X142.373 Y82.147 E6.12057
G1 F694.6 X142.219 Y81.998 E6.13288
G1 F2700 E0.63288
G0 F6000 X129.91 Y85.778
G1 F2700 E6.13288
G1 F1363.6 X130.422 Y85.922 E6.14845
G1 F1367.5 X130.878 Y85.963 E6.16181
G1 F1352.1 X131.366 Y85.904 E6.17632
G1 F1375.4 X131.615 Y85.818 E6.18396
G1 F1379.3 X131.907 Y85.695 E6.19313
G1 F1344.5 X132.27 Y85.457 E6.20602
G1 F1322.3 X132.589 Y85.182 E6.21873
G1 F1253.3 X132.969 Y85.021 E6.23187
G1 F1200 X133.322 Y84.978 E6.2437
G1 X133.762 Y85.029 E6.25843
G1 F1259.8 X134.119 Y85.239 E6.27155
G1 F1344.5 X134.43 Y85.49 E6.28342
G1 F1367.5 X134.761 Y85.701 E6.29487
G1 F1359.8 X135.224 Y85.886 E6.30951
G1 F1367.5 X135.513 Y85.932 E6.31805
G1 F1375.4 X135.859 Y85.973 E6.32816
G1 F1359.8 X136.464 Y85.883 E6.34611
G1 F1363.6 X136.877 Y85.706 E6.35926
G1 X137.222 Y85.488 E6.37121
G1 F1318.7 X137.61 Y85.173 E6.38634
G1 F1237.1 X137.969 Y85.021 E6.39891
G1 F1200 X138.322 Y84.978 E6.41074
G1 X138.763 Y85.029 E6.42551
G1 F1266.5 X139.123 Y85.245 E6.43874
G1 F1355.9 X139.43 Y85.491 E6.45032
G1 F1367.5 X139.788 Y85.714 E6.46263
G1 F1363.6 X140.241 Y85.898 E6.47694
G1 F1359.8 X140.851 Y85.965 E6.49495
G1 F1348.3 X141.336 Y85.911 E6.50939
G1 F1197 X141.65 Y85.634 E6.52336
G1 F1200 X141.244 Y85.563 E6.53706
G1 F1375.4 X140.958 Y85.611 E6.54548
G1 F1399.4 X140.543 Y85.589 E6.55733
G1 F1391.3 X140.168 Y85.496 E6.56842
G1 F1399.4 X139.783 Y85.318 E6.58051
G1 F1383.3 X139.38 Y85 E6.59533
G1 F1276.6 X139.13 Y84.699 E6.60756
G1 F1200 X138.954 Y84.345 E6.62071
G1 X138.857 Y84.006 E6.63244
G1 X138.822 Y83.617 E6.64543
G1 X138.857 Y83.262 E6.65729
G1 X138.94 Y82.958 E6.66777
G1 X139.123 Y82.555 E6.68249
G1 X139.408 Y82.217 E6.6972
G1 F1273.2 X139.428 Y82.23 E6.69795
G1 F1371.4 X139.722 Y81.996 E6.70888
G1 F1395.3 X140.07 Y81.798 E6.72033
G1 X140.453 Y81.689 E6.73172
G1 X140.93 Y81.652 E6.74541
G1 X141.384 Y81.739 E6.75863
G1 F1387.3 X141.695 Y81.86 E6.76823
